www/assets/icons/transcribe.svg

<svg width="24" height="24" viewBox="0 0 24 24" xmlns="http://www.w3.org/2000/svg" fill='currentColor'><path d="M17.97 16.5L19.6 14.87C16.83 11.85 16.83 7.31 19.6 4.13L17.97 2.5C14.07 6.39 14.06 12.45 17.97 16.5ZM22.96 11.45C22.12 10.27 22.12 8.74 22.96 7.56L21.28 5.87C19.26 7.89 19.26 10.94 21.28 13.14L22.96 11.45ZM9.03998 13.5C11.25 13.5 13.04 11.71 13.04 9.5C13.04 7.29 11.25 5.5 9.03998 5.5C6.82998 5.5 5.03998 7.29 5.03998 9.5C5.03998 11.71 6.82998 13.5 9.03998 13.5ZM15.43 16.06C13.75 15.2 11.57 14.5 9.03998 14.5C6.50998 14.5 4.32998 15.2 2.64998 16.06C1.64998 16.57 1.03998 17.6 1.03998 18.72V21.5H17.04V18.72C17.04 17.6 16.43 16.57 15.43 16.06Z"/></svg>

<svg xmlns="http://www.w3.org/2000/svg" width="24" height="24" viewBox="0 0 24 24" fill='currentColor'><path d="m17.97 16.5 1.63-1.63c-2.77-3.02-2.77-7.56 0-10.74L17.97 2.5c-3.9 3.89-3.91 9.95 0 14m4.99-5.05a3.32 3.32 0 0 1 0-3.89l-1.68-1.69c-2.02 2.02-2.02 5.07 0 7.27zM9.04 13.5c2.21 0 4-1.79 4-4s-1.79-4-4-4-4 1.79-4 4 1.79 4 4 4m6.39 2.56c-1.68-.86-3.86-1.56-6.39-1.56s-4.71.7-6.39 1.56a2.97 2.97 0 0 0-1.61 2.66v2.78h16v-2.78c0-1.12-.61-2.15-1.61-2.66"/></svg>
